X:328
T:Oakridge Rendezvous
C:Doyle Lawson
N:Transcribed by Steve Margulis
R:bluegrass
L:1/8
Q:1/4=230
M:4/4
K:D
z8 | [e4A4] [e4A4] | [e4A4] [e4A4] |: "A"ac'2c' a2 ac' | ef ed cB A2 | ac'2c' a2 ac' | 
ef ec A2 A2 | ac'2c' a2 ac' | ef ed cA cd | ec e"D"a fa ed | "E"cA BA "A"cB A2 :|: "D"AB de f2 [f2d2] | 
"G"fg ga "D"f2 fa | "A"ef ed cB AB | ce cB AF ED | "G"Gg ed ge dB | "E"BA ^GF EF GB | 
|1 A"A"^G FE AG FE | A^G FE AG FE :|2 A"A"B cA "E"BA ^GE | "A"A8 | 


